icons/radiology_fill.svg

<svg width="48" height="48" viewBox="0 0 48 48" fill="none" xmlns="http://www.w3.org/2000/svg">
<path fill-rule="evenodd" clip-rule="evenodd" d="M6 9C6 7.34315 7.34315 6 9 6H39C40.6569 6 42 7.34315 42 9V39C42 40.6569 40.6569 42 39 42H9C7.34315 42 6 40.6569 6 39V9ZM28.5 14.5C28.5 16.9853 26.4853 19 24 19C21.5147 19 19.5 16.9853 19.5 14.5C19.5 12.0147 21.5147 10 24 10C26.4853 10 28.5 12.0147 28.5 14.5ZM13 22C13 21.4477 13.4477 21 14 21H34C34.5523 21 35 21.4477 35 22V37C35 37.5523 34.5523 38 34 38H29C29 37.4027 28.7273 36.8603 28.4298 36.4438C28.119 36.0086 27.7038 35.602 27.2498 35.2552C26.6213 34.7753 25.8253 34.3413 25 34.132V31.1465H26.4C27.3909 31.1465 28.6372 31.5421 29.7118 31.9948C30.2329 32.2143 30.6842 32.4344 31.0047 32.5995C31.1646 32.6818 31.291 32.7499 31.376 32.7967C31.4186 32.82 31.4507 32.838 31.4715 32.8498L31.494 32.8626L31.4987 32.8653C31.4986 32.8652 31.4988 32.8653 32 32C32.5012 31.1347 32.5011 31.1346 32.5009 31.1345L32.4995 31.1337L32.4967 31.132L32.4875 31.1268L32.4555 31.1086C32.4282 31.0932 32.3892 31.0714 32.3396 31.0441C32.2403 30.9895 32.0979 30.9128 31.9203 30.8213C31.5658 30.6388 31.0671 30.3955 30.4882 30.1517C29.3628 29.6776 27.8091 29.1465 26.4 29.1465H25V27H25.8C26.5489 27 27.4846 27.2145 28.285 27.457C28.6741 27.5749 29.0109 27.6931 29.2496 27.7815C29.3686 27.8256 29.4626 27.862 29.5256 27.8869C29.5492 27.8963 29.5684 27.904 29.5829 27.9099C29.5878 27.9118 29.5922 27.9136 29.596 27.9152L29.6124 27.9218L29.6156 27.9232C29.6155 27.9231 29.6154 27.9231 30 27C30.3846 26.0769 30.3845 26.0769 30.3843 26.0768L30.3809 26.0754L30.3737 26.0724L30.3492 26.0624C30.3284 26.0539 30.2988 26.042 30.2611 26.0271C30.1859 25.9974 30.0782 25.9557 29.9442 25.906C29.6766 25.8069 29.3009 25.6751 28.865 25.543C28.0154 25.2855 26.8511 25 25.8 25H25V23H23V25H21.9C20.6996 25 19.6077 25.284 18.8314 25.5564C18.4395 25.6939 18.1185 25.8319 17.8923 25.937C17.7791 25.9897 17.689 26.0345 17.6251 26.0672C17.5932 26.0836 17.5677 26.097 17.5492 26.1069L17.5265 26.1192L17.5191 26.1232L17.5164 26.1247L17.5153 26.1253C17.5151 26.1255 17.5144 26.1258 18 27C18.4856 27.8742 18.4854 27.8743 18.4852 27.8744L18.4923 27.8706C18.5011 27.8659 18.5164 27.8578 18.5378 27.8468C18.5805 27.8249 18.6475 27.7915 18.7358 27.7505C18.9128 27.6681 19.173 27.5561 19.4936 27.4436C20.1423 27.216 21.0004 27 21.9 27H23V29.1465H21.2C19.5905 29.1465 18.1347 29.6754 17.1116 30.1745C16.594 30.4269 16.1714 30.6795 15.8758 30.8706C15.7276 30.9664 15.6104 31.0474 15.5281 31.1061C15.4869 31.1354 15.4544 31.1593 15.431 31.1766L15.4029 31.1978L15.394 31.2045L15.391 31.2069L15.3897 31.2078C15.3895 31.208 15.3888 31.2085 16 32C16.6112 32.7914 16.611 32.7916 16.6108 32.7918L16.6242 32.7817C16.6374 32.7719 16.6592 32.756 16.6891 32.7346C16.749 32.6919 16.8411 32.6281 16.9617 32.5501C17.2036 32.3938 17.556 32.1829 17.9884 31.972C18.8653 31.5443 20.0095 31.1465 21.2 31.1465H23V34.1644C22.1707 34.39 21.3693 34.8145 20.7267 35.2983C20.278 35.6361 19.8677 36.0315 19.5605 36.4598C19.2638 36.8734 19 37.407 19 38H14C13.4477 38 13 37.5523 13 37V22ZM26.9704 37.899C26.9956 37.9619 26.9994 37.9944 26.9999 38H21C21.0001 37.9977 21.0019 37.9661 21.0278 37.9008C21.0556 37.8308 21.1051 37.7378 21.1856 37.6255C21.3485 37.3985 21.6023 37.1425 21.9296 36.896C22.5878 36.4005 23.3896 36.0561 24.0338 36.0004C24.5874 36.0129 25.3594 36.3282 26.0359 36.8448C26.3676 37.098 26.631 37.3664 26.8023 37.6062C26.8872 37.725 26.9403 37.8241 26.9704 37.899Z" fill="black"/>
</svg>

<svg
  xmlns="http://www.w3.org/2000/svg"
  width="24"
  height="24"
  viewBox="0 0 24 24"
  fill="none"
  stroke="currentColor"
  stroke-width="2"
  stroke-linecap="round"
  stroke-linejoin="round"
>
  <path
    fill-rule="evenodd"
    d="M6 9a3 3 0 0 1 3-3h30a3 3 0 0 1 3 3v30a3 3 0 0 1-3 3H9a3 3 0 0 1-3-3zm22.5 5.5a4.5 4.5 0 1 1-9 0 4.5 4.5 0 0 1 9 0M13 22a1 1 0 0 1 1-1h20a1 1 0 0 1 1 1v15a1 1 0 0 1-1 1h-5c0-.597-.273-1.14-.57-1.556a5.7 5.7 0 0 0-1.18-1.189c-.629-.48-1.425-.914-2.25-1.123v-2.985h1.4c.99 0 2.237.395 3.312.848a19 19 0 0 1 1.76.855l.022.013.005.002L32 32c.501-.865.501-.865.5-.866l-.003-.002-.01-.005-.032-.018a13 13 0 0 0-.535-.288 21 21 0 0 0-1.432-.67c-1.125-.473-2.679-1.005-4.088-1.005H25V27h.8c.749 0 1.685.215 2.485.457a17 17 0 0 1 1.311.458l.016.007.004.001L30 27l.384-.923-.003-.002-.007-.003-.025-.01-.088-.035q-.114-.046-.317-.121c-.267-.1-.643-.23-1.079-.363-.85-.258-2.014-.543-3.065-.543H25v-2h-2v2h-1.1c-1.2 0-2.292.284-3.069.556a11 11 0 0 0-1.206.511l-.076.04-.023.012-.007.004-.003.002s-.002 0 .484.875l.485.874.007-.003.046-.024q.065-.034.198-.097c.177-.082.437-.194.758-.306C20.142 27.216 21 27 21.9 27H23v2.146h-1.8c-1.61 0-3.065.53-4.088 1.028a12 12 0 0 0-1.584.932l-.097.07-.028.022-.009.006-.003.003h-.001c0 .001-.001.002.61.793s.611.792.61.792l.014-.01.065-.047a9.941 9.941 0 0 1 1.3-.763c.876-.428 2.02-.825 3.211-.825H23v3.017a6.9 6.9 0 0 0-2.273 1.134 5.5 5.5 0 0 0-1.166 1.162c-.297.413-.561.947-.561 1.54h-5a1 1 0 0 1-1-1zm13.97 15.899A.4.4 0 0 1 27 38h-6c0-.002.002-.034.028-.1.028-.07.077-.162.158-.274.163-.227.416-.483.744-.73.658-.495 1.46-.84 2.104-.896.553.013 1.325.328 2.002.845.332.253.595.521.766.761.085.119.138.218.168.293"
    clip-rule="evenodd"
  />
</svg>
